resources/icons/svg/stop.svg

<svg xmlns:svg="http://www.w3.org/2000/svg" xmlns="http://www.w3.org/2000/svg" xmlns:xlink="http://www.w3.org/1999/xlink" width="48" height="48" id="svg1307" version="1.1"><defs id="defs1309"><linearGradient id="linearGradient2584"><stop offset="0" id="stop2586" style="stop-color:#000000;stop-opacity:1"/><stop offset="1" id="stop2588" style="stop-color:#ffffff;stop-opacity:0"/></linearGradient><linearGradient id="linearGradient2697"><stop id="stop2699" offset="0" stop-color="#babdb6"/><stop id="stop2701" offset="1" stop-color="#555753"/></linearGradient><linearGradient id="linearGradient2679"><stop id="stop2681" offset="0" style="stop-color:#ffffff;stop-opacity:1"/><stop id="stop2683" offset="1" stop-color="#d3d7cf"/></linearGradient><linearGradient id="linearGradient3081"><stop offset="0" id="stop3083" style="stop-color:#ffffff;stop-opacity:1"/><stop offset="1" id="stop3085" style="stop-color:#ffffff;stop-opacity:0"/></linearGradient><radialGradient xlink:href="#linearGradient2679" id="radialGradient3517" cx="172.12" cy="100.89" fx="172.12" fy="100.89" r="11" gradientUnits="userSpaceOnUse" gradientTransform="matrix(0.939183,-1.130702,1.7874,1.48463,-169.5461,144.985)"/><linearGradient xlink:href="#linearGradient2697" id="linearGradient3529" gradientUnits="userSpaceOnUse" x1="158.62" y1="84.71" x2="158.62" y2="102.4"/><linearGradient xlink:href="#linearGradient2584" id="linearGradient3566" gradientUnits="userSpaceOnUse" gradientTransform="translate(115.1436,-16.13375)" x1="44.65" y1="102.85" x2="44.9" y2="104.82"/><linearGradient xlink:href="#linearGradient2584" id="linearGradient3571" gradientUnits="userSpaceOnUse" gradientTransform="translate(115.1436,-16.13375)" x1="44.73" y1="106.53" x2="45.23" y2="109.82"/><linearGradient xlink:href="#linearGradient2584" id="linearGradient3577" gradientUnits="userSpaceOnUse" gradientTransform="translate(115.1436,-16.13375)" x1="44.58" y1="111.76" x2="45.68" y2="117.88"/><linearGradient xlink:href="#linearGradient2584" id="linearGradient3580" gradientUnits="userSpaceOnUse" gradientTransform="translate(115.1436,-16.13375)" x1="45.37" y1="119.79" x2="47.04" y2="126.98"/><linearGradient xlink:href="#linearGradient3081" id="linearGradient3708" gradientUnits="userSpaceOnUse" gradientTransform="translate(145,70.99999)" x1="14.62" y1="15.36" x2="14.58" y2="33.35"/></defs><metadata id="metadata1312"/><g id="layer2" display="inline"/><g transform="matrix(1.5362096,0,0,1.5362096,-235.61942,-121.93991)" id="g3588"><rect id="rect2441" width="21" height="21" x="158.5" y="84.5" fill="url(#radialGradient3517)"/><g id="g3582" opacity="0.2"><path id="rect2825" d="m179.5 101.81-21 1.94 0 1.75 21 0 0-3.69z" style="fill:url(#linearGradient3580);opacity:0.35"/><path id="rect2821" d="m179.5 88.75-21 1.94 0 3 21-1.91 0-3.03z" style="fill:url(#linearGradient3571);opacity:0.35"/><path id="rect2823" d="m179.5 93.78-21 1.94 0 6.03 21-1.94 0-6.03z" style="fill:url(#linearGradient3577);opacity:0.35"/><path id="rect2819" d="m179.5 84.75-21 1.94 0 2 21-1.94 0-2z" style="fill:url(#linearGradient3566);opacity:0.35"/></g><rect id="rect2443" width="19" height="19" x="159.5" y="85.5" style="fill:none;stroke-linecap:square;stroke:url(#linearGradient3708)"/><rect id="rect3527" width="21" height="21" x="158.5" y="84.5" style="fill:none;stroke-linecap:square;stroke-linejoin:round;stroke:url(#linearGradient3529)"/></g></svg>

<svg xmlns:svg="http://www.w3.org/2000/svg" xmlns="http://www.w3.org/2000/svg" xmlns:xlink="http://www.w3.org/1999/xlink" width="48" height="48" id="svg1307"><defs id="defs1309"><linearGradient id="linearGradient2584"><stop offset="0" id="stop2586" style="stop-color:#000000;stop-opacity:1"/><stop offset="1" id="stop2588" style="stop-color:#ffffff;stop-opacity:0"/></linearGradient><linearGradient id="linearGradient2697"><stop id="stop2699" offset="0" stop-color="#babdb6"/><stop id="stop2701" offset="1" stop-color="#555753"/></linearGradient><linearGradient id="linearGradient2679"><stop id="stop2681" offset="0" style="stop-color:#ffffff;stop-opacity:1"/><stop id="stop2683" offset="1" stop-color="#d3d7cf"/></linearGradient><linearGradient id="linearGradient3081"><stop offset="0" id="stop3083" style="stop-color:#ffffff;stop-opacity:1"/><stop offset="1" id="stop3085" style="stop-color:#ffffff;stop-opacity:0"/></linearGradient><linearGradient id="linearGradient8662"><stop offset="0" id="stop8664" style="stop-color:#000000;stop-opacity:1"/><stop offset="1" id="stop8666" style="stop-color:#000000;stop-opacity:0"/></linearGradient><radialGradient xlink:href="#linearGradient2679" id="radialGradient3517" cx="172.12" cy="100.89" fx="172.12" fy="100.89" r="11" gradientUnits="userSpaceOnUse" gradientTransform="matrix(0.939183,-1.130702,1.787400,1.484630,-169.5461,144.9850)"/><linearGradient xlink:href="#linearGradient2697" id="linearGradient3529" gradientUnits="userSpaceOnUse" x1="158.62" y1="84.71" x2="158.62" y2="102.4"/><linearGradient xlink:href="#linearGradient2584" id="linearGradient3566" gradientUnits="userSpaceOnUse" gradientTransform="translate(115.1436,-16.13375)" x1="44.65" y1="102.85" x2="44.9" y2="104.82"/><linearGradient xlink:href="#linearGradient2584" id="linearGradient3571" gradientUnits="userSpaceOnUse" gradientTransform="translate(115.1436,-16.13375)" x1="44.73" y1="106.53" x2="45.23" y2="109.82"/><linearGradient xlink:href="#linearGradient2584" id="linearGradient3577" gradientUnits="userSpaceOnUse" gradientTransform="translate(115.1436,-16.13375)" x1="44.58" y1="111.76" x2="45.68" y2="117.88"/><linearGradient xlink:href="#linearGradient2584" id="linearGradient3580" gradientUnits="userSpaceOnUse" gradientTransform="translate(115.1436,-16.13375)" x1="45.37" y1="119.79" x2="47.04" y2="126.98"/><linearGradient xlink:href="#linearGradient3081" id="linearGradient3708" gradientUnits="userSpaceOnUse" gradientTransform="translate(145.0000,70.99999)" x1="14.62" y1="15.36" x2="14.58" y2="33.35"/><radialGradient xlink:href="#linearGradient8662" id="radialGradient2194" gradientUnits="userSpaceOnUse" gradientTransform="matrix(1.000000,0.000000,0.000000,0.536723,-9.309409e-13,16.87306)" cx="24.84" cy="36.42" fx="24.84" fy="36.42" r="15.64"/></defs><metadata id="metadata1312"/><g id="layer2" display="inline"/><g id="layer1" display="inline"><g id="g2212" transform="translate(-183.0004,-71.09425)"><path transform="matrix(1.086614,0.000000,0.000000,0.565685,180.0114,87.64710)" d="M40.48 36.42A15.64 8.4 0 1 1 9.19 36.42 15.64 8.4 0 1 1 40.48 36.42z" id="path2192" style="color:#000000;display:inline;fill-rule:evenodd;fill:url(#radialGradient2194);opacity:0.04;overflow:visible"/><g transform="translate(38.00000,0.000000)" id="g3588"><rect id="rect2441" width="21" height="21" x="158.5" y="84.5" style="color:#000000;display:inline;fill-rule:evenodd;fill:url(#radialGradient3517);overflow:visible"/><g id="g3582" opacity="0.2"><path id="rect2825" d="M179.5 101.81L158.5 103.75 158.5 105.5 179.5 105.5 179.5 101.81z" style="color:#000000;display:inline;fill-rule:evenodd;fill:url(#linearGradient3580);opacity:0.35;overflow:visible"/><path id="rect2821" d="M179.5 88.75L158.5 90.69 158.5 93.69 179.5 91.78 179.5 88.75z" style="color:#000000;display:inline;fill-rule:evenodd;fill:url(#linearGradient3571);opacity:0.35;overflow:visible"/><path id="rect2823" d="M179.5 93.78L158.5 95.72 158.5 101.75 179.5 99.81 179.5 93.78z" style="color:#000000;display:inline;fill-rule:evenodd;fill:url(#linearGradient3577);opacity:0.35;overflow:visible"/><path id="rect2819" d="M179.5 84.75L158.5 86.69 158.5 88.69 179.5 86.75 179.5 84.75z" style="color:#000000;display:inline;fill-rule:evenodd;fill:url(#linearGradient3566);opacity:0.35;overflow:visible"/></g><rect id="rect2443" width="19" height="19" x="159.5" y="85.5" style="color:#000000;display:inline;fill:none;overflow:visible;stroke-linecap:square;stroke-miterlimit:4;stroke-width:1;stroke:url(#linearGradient3708)"/><rect id="rect3527" width="21" height="21" x="158.5" y="84.5" style="color:#000000;display:inline;fill:none;overflow:visible;stroke-linecap:square;stroke-linejoin:round;stroke-miterlimit:4;stroke:url(#linearGradient3529)"/></g></g></g></svg>
